**harmony	**harte	**kern	**silbe	**rhyme	**timestamp	**phrase	**leadinstrument
*M3/4	*M3/4	*ICvox	*	*	*	*	*
*	*	*VRlead	*	*	*	*	*
*	*	*Hstimme	*	*	*	*	*
*A-:	*A-:	*A-:	*	*	*	*	*
2.r;	1r	2.r;	.	.	0	.	r
=1	=1	=1	=1	=1	=1	=1	=1
*>Letter>A	*>Letter>A	*>Letter>A	*>Letter>A	*>Letter>A	*>Letter>A	*>Letter>A	*>Letter>A
*>Label>Intro	*>Label>Intro	*>Label>Intro	*>Label>Intro	*>Label>Intro	*>Label>Intro	*>Label>Intro	*>Label>Intro
*	*	*M3/4	*	*	*	*	*
*	*	*clefG2	*	*	*	*	*
2.A-M	A-:maj/5	2.r	.	.	0.441	newline	r
=2	=2	=2	=2	=2	=2	=2	=2
2.E-Mm	E-:7	2.r	.	.	3.411	.	r
=3	=3	=3	=3	=3	=3	=3	=3
2.A-M	A-:maj/5	2.r	.	.	6.38	.	r
=4	=4	=4	=4	=4	=4	=4	=4
2.A-M	A-:maj/5	2.r	.	.	9.35	.	r
=5	=5	=5	=5	=5	=5	=5	=5
*>Letter>B	*>Letter>B	*>Letter>B	*>Letter>B	*>Letter>B	*>Letter>B	*>Letter>B	*>Letter>B
*>Label>Verse	*>Label>Verse	*>Label>Verse	*>Label>Verse	*>Label>Verse	*>Label>Verse	*>Label>Verse	*>Label>Verse
2.A-M	A-:maj	4.E-	Si-	.	12.32	newline	voice
.	.	8F	_	.	.	.	.
.	.	4E-	-lent	.	.	.	.
=6	=6	=6	=6	=6	=6	=6	=6
2.A-M	A-:maj	2.C	night	A	15.009	.	voice
=7	=7	=7	=7	=7	=7	=7	=7
2.A-M	A-:maj	4.E-	ho-	.	17.698	.	voice
.	.	8F	_	.	.	.	.
.	.	4E-	-ly	.	.	.	.
=8	=8	=8	=8	=8	=8	=8	=8
2.A-M	A-:maj	2.C	night	A	20.388	.	voice
=9	=9	=9	=9	=9	=9	=9	=9
2.E-M	E-:sus4	[2B-	all	.	23.077	newline	voice
.	.	8B-]	_	.	.	.	.
.	.	8B-	is	.	.	.	.
=10	=10	=10	=10	=10	=10	=10	=10
2.E-M	E-:maj	2.G	calm	.	25.748	.	voice
=11	=11	=11	=11	=11	=11	=11	=11
2.A-M	A-:maj	[2A-	all	.	28.42	.	voice
.	.	8A-]	_	.	.	.	.
.	.	8A-	is	.	.	.	.
=12	=12	=12	=12	=12	=12	=12	=12
2.A-M	A-:maj	2.E-	bright	A	31.091	.	voice
=13	=13	=13	=13	=13	=13	=13	=13
2.D-M	D-:maj	[2F	round	.	33.762	newline	voice
.	.	8F]	_	.	.	.	.
.	.	8F	yon	.	.	.	.
=14	=14	=14	=14	=14	=14	=14	=14
2.D-M	D-:maj	4.A-	vir-	.	36.446	.	voice
.	.	8G	_	.	.	.	.
.	.	4F	-gin	.	.	.	.
=15	=15	=15	=15	=15	=15	=15	=15
2.A-M	A-:maj	8r	.	.	39.129	.	voice
.	.	4E-	mo-	.	.	.	.
.	.	8F	-ther	.	.	.	.
.	.	4E-	and	.	.	.	.
=16	=16	=16	=16	=16	=16	=16	=16
2.A-M	A-:maj	2.C	child	B	41.812	.	voice
=17	=17	=17	=17	=17	=17	=17	=17
2.D-M	D-:maj	8r	.	.	44.495	newline	voice
.	.	4.F	ho-	.	.	.	.
.	.	4F	-ly	.	.	.	.
=18	=18	=18	=18	=18	=18	=18	=18
2.D-M	D-:maj	4.A-	in-	.	47.303	.	voice
.	.	8G	-fant	.	.	.	.
.	.	4r	.	.	.	.	.
=19	=19	=19	=19	=19	=19	=19	=19
2.A-M	A-:maj	8r	.	.	50.111	.	voice
.	.	8AA-	so	.	.	.	.
.	.	[4E-	ten-	.	.	.	.
.	.	8E-]	_	.	.	.	.
.	.	16F	-der	.	.	.	.
.	.	16E-	and	.	.	.	.
=20	=20	=20	=20	=20	=20	=20	=20
2.A-M	A-:maj	2.C	mild	B	52.919	.	voice
=21	=21	=21	=21	=21	=21	=21	=21
2.E-Mm	E-:7	2B-	sleep	.	55.728	newline	voice
.	.	4B-	in	.	.	.	.
=22	=22	=22	=22	=22	=22	=22	=22
2.E-Mm	E-:7	4.d-	hea-	.	58.518	.	voice
.	.	8B-	-ven-	.	.	.	.
.	.	4G	-ly	.	.	.	.
=23	=23	=23	=23	=23	=23	=23	=23
2.A-M	A-:maj	2.A-	peace	.	61.308	.	voice
=24	=24	=24	=24	=24	=24	=24	=24
2.A-M	A-:maj	2.c	_	.	64.098	.	voice
=25	=25	=25	=25	=25	=25	=25	=25
2.A-M	A-:maj	4A-	sleep	.	66.888	newline	voice
.	.	4E-	_	.	.	.	.
.	.	8r	.	.	.	.	.
.	.	8C	in	.	.	.	.
=26	=26	=26	=26	=26	=26	=26	=26
2.E-M	E-:maj	4.E-	hea-	.	69.742	.	voice
.	.	8D-	-ven-	.	.	.	.
.	.	4BB-	-ly	.	.	.	.
=27	=27	=27	=27	=27	=27	=27	=27
2.A-M	A-:maj	[2.AA-	peace	.	72.597	.	voice
=28	=28	=28	=28	=28	=28	=28	=28
2.A-M	A-:maj	2AA-]	_	.	75.451	.	voice
.	.	4r	.	.	.	.	.
=29	=29	=29	=29	=29	=29	=29	=29
*>Letter>B	*>Letter>B	*>Letter>B	*>Letter>B	*>Letter>B	*>Letter>B	*>Letter>B	*>Letter>B
*>Label>Verse	*>Label>Verse	*>Label>Verse	*>Label>Verse	*>Label>Verse	*>Label>Verse	*>Label>Verse	*>Label>Verse
2.A-M	A-:maj	4.E-	Si-	.	78.306	newline	voice
.	.	8F	_	.	.	.	.
.	.	4E-	-lent	.	.	.	.
=30	=30	=30	=30	=30	=30	=30	=30
2.A-MM	A-:maj7	2.C	night	A	81.386	.	voice
=31	=31	=31	=31	=31	=31	=31	=31
2.A-M	A-:maj(9)	4.E-	ho-	.	84.467	.	voice
.	.	8F	_	.	.	.	.
.	.	4E-	-ly	.	.	.	.
=32	=32	=32	=32	=32	=32	=32	=32
2.A-MM	A-:maj7	2.C	night	A	87.547	.	voice
=33	=33	=33	=33	=33	=33	=33	=33
2.E-Mm	E-:7	[2B-	all	.	90.628	newline	voice
.	.	8B-]	_	.	.	.	.
.	.	8B-	is	.	.	.	.
=34	=34	=34	=34	=34	=34	=34	=34
2.E-Mm	E-:7	2.G	calm	.	93.796	.	voice
=35	=35	=35	=35	=35	=35	=35	=35
2.A-M	A-:maj	[2A-	all	.	96.963	.	voice
.	.	8A-]	_	.	.	.	.
.	.	8A-	is	.	.	.	.
=36	=36	=36	=36	=36	=36	=36	=36
2A-MM	A-:maj7	2.E-	bright	A	100.131	.	voice
4A-Mm	A-:7	.	.	.	102.243	.	voice
=37	=37	=37	=37	=37	=37	=37	=37
2.D-M	D-:maj	8r	.	.	103.299	newline	voice
.	.	2F	round	.	.	.	.
.	.	8F	yon	.	.	.	.
=38	=38	=38	=38	=38	=38	=38	=38
4D-MM	D-:maj7	4.A-	vir-	.	106.433	.	voice
4D-M	D-:maj6	.	.	.	107.478	.	voice
.	.	8G	_	.	.	.	.
4D-Mm	D-:7	4F	-gin	.	108.523	.	voice
=39	=39	=39	=39	=39	=39	=39	=39
2.A-M	A-:maj(9)	8r	.	.	109.567	.	voice
.	.	4E-	mo-	.	.	.	.
.	.	8F	-ther	.	.	.	.
.	.	4E-	and	.	.	.	.
=40	=40	=40	=40	=40	=40	=40	=40
4A-MM	A-:maj7	2.C	child	B	112.702	.	voice
2A-Mm	A-:7	.	.	.	114.791	.	voice
=41	=41	=41	=41	=41	=41	=41	=41
2.D-M	D-:maj	8r	.	.	115.836	newline	voice
.	.	2F	ho-	.	.	.	.
.	.	8F	-ly	.	.	.	.
=42	=42	=42	=42	=42	=42	=42	=42
4D-MM	D-:maj7	4.A-	in-	.	119.055	.	voice
4D-M	D-:maj6	.	.	.	120.128	.	voice
.	.	8G	-fant	.	.	.	.
4D-Mm	D-:7	8r	.	.	121.201	.	voice
.	.	8AA-	so	.	.	.	.
=43	=43	=43	=43	=43	=43	=43	=43
2.A-M	A-:maj(9)	4.E-	ten-	.	122.274	.	voice
.	.	8F	-der	.	.	.	.
.	.	4E-	and	.	.	.	.
=44	=44	=44	=44	=44	=44	=44	=44
2.A-M	A-:maj	2.C	mild	B	125.493	.	voice
=45	=45	=45	=45	=45	=45	=45	=45
2.E-Mm	E-:7	2B-	sleep	.	128.712	newline	voice
.	.	4B-	in	.	.	.	.
=46	=46	=46	=46	=46	=46	=46	=46
2.E-Mm	E-:7	4.d-	hea-	.	132.107	.	voice
.	.	8B-	-ven-	.	.	.	.
.	.	4G	-ly	.	.	.	.
=47	=47	=47	=47	=47	=47	=47	=47
2.A-M	A-:maj	[2.A-	peace	.	135.503	.	voice
=48	=48	=48	=48	=48	=48	=48	=48
2.A-M	A-:maj	2.A-]	_	.	138.899	.	voice
=49	=49	=49	=49	=49	=49	=49	=49
2.A-M	A-:maj	8A-	sleep	.	142.294	newline	voice
.	.	4.E-	_	.	.	.	.
.	.	8r	.	.	.	.	.
.	.	8C	in	.	.	.	.
=50	=50	=50	=50	=50	=50	=50	=50
2.E-Mm	E-:7	4.E-	hea-	.	145.732	.	voice
.	.	8D-	-ven-	.	.	.	.
.	.	4BB-	-ly	.	.	.	.
=51	=51	=51	=51	=51	=51	=51	=51
2.A-M	A-:maj	[2.AA-	peace	.	149.169	.	voice
=52	=52	=52	=52	=52	=52	=52	=52
2.A-M	A-:maj	2AA-]	_	.	152.607	.	voice
.	.	4r	.	.	.	.	.
1r;	1r	r;	.	.	160.055	.	r
1r;	1r	r;	.	.	161.907	.	r
*-	*-	*-	*-	*-	*-	*-	*-
!!!BillboardChartDate: 1960/12/19
!!!BillboardPeak: 54
!!!BillboardWeeksOnChart: 2
!!!COC: Bing Crosby
!!!ENC: Nathaniel Condit-Schultz
!!!EST: Awating manual error checking and editing.
!!!OTL: Silent Night
!!!RDF**chordsym: original McGill chord annotation + (implied pitch class set, with bass pitch in first position)
!!!RDF**harmony: **recip + pitch class of root + harmonic quality
!!!RDF**leadinstrument: original McGill primary instrumentation annotation
!!!RDF**phrase: newline = linebreak in original McGill transcription
!!!RDF**timestamp: McGill audio timestamp in seconds
!!!RDT: 2017/01/12/
!!!SampleActualRank: 64
!!!SampleID#: 0123
!!!SampleTargetRank: 64
!!!MBID: 0a097307-48de-4301-804a-5a27b5d798d2
